X:1050
T:A favourite Air.
N:[pencil note] Fal lal la
M:2/4
L:1/16
Q:1/4=104
I: ||
Z:Jack Campin * www.campin.me.uk * 2009
K:C
c2|g2````g2   e2````e2  |c2`c2  c/d/e   z2|f2`f2 e2 zc|   B>cd>e d2
zd|g2````g2   e2````e2  |c2`c2  c/d/e   z2|f2`f2 e2 zc|{e}d>cd>e c2
zg|d2````e2   f2````g2  |d2`e2  f2``````g2|d2`e2 f2`a2|   g2`e2 Hg2 \
zg|g2 (3(gaf) e2 (3(efd)|
                         c2`c2 (c/d/e) z2 |f2`f2 e2 zc|   d>cd>e c2 \
z2|fb````d'f  ef````c'e |d>cd>e c2       |]
<end>
<start>
